ui/StatusQ/src/assets/img/icons/close-circle.svg

<svg fill="none" height="24" viewBox="0 0 24 24" width="24" xmlns="http://www.w3.org/2000/svg"><g fill="#000"><path d="m16.0303 7.96955c.2929.29289.2929.76776 0 1.06066l-2.6161 2.61619c-.1953.1952-.1953.5118 0 .7071l2.6161 2.6162c.2929.2929.2929.7677 0 1.0606s-.7677.2929-1.0606 0l-2.6162-2.6161c-.1953-.1953-.5119-.1953-.7071 0l-2.61607 2.616c-.29289.2929-.76777.2929-1.06066 0s-.29289-.7678 0-1.0607l2.61603-2.616c.1953-.1953.1953-.5119 0-.7071l-2.61603-2.61607c-.29289-.29289-.29289-.76777 0-1.06066s.76777-.29289 1.06066 0l2.61607 2.61603c.1952.1953.5118.1953.7071 0l2.6162-2.61615c.2929-.2929.7677-.2929 1.0606 0z"/><path clip-rule="evenodd" d="m12 22c5.5228 0 10-4.4772 10-10 0-5.52285-4.4772-10-10-10-5.52285 0-10 4.47715-10 10 0 5.5228 4.47715 10 10 10zm0-1.5c4.6944 0 8.5-3.8056 8.5-8.5 0-4.69442-3.8056-8.5-8.5-8.5-4.69442 0-8.5 3.80558-8.5 8.5 0 4.6944 3.80558 8.5 8.5 8.5z" fill-rule="evenodd"/></g></svg>

<svg width="24" height="24" viewBox="0 0 24 24" fill="none" xmlns="http://www.w3.org/2000/svg">
<path d="M16.0303 7.96955C16.3232 8.26244 16.3232 8.73731 16.0303 9.03021L13.4142 11.6464C13.2189 11.8416 13.2189 12.1582 13.4142 12.3535L16.0303 14.9697C16.3232 15.2626 16.3232 15.7374 16.0303 16.0303C15.7374 16.3232 15.2626 16.3232 14.9697 16.0303L12.3535 13.4142C12.1582 13.2189 11.8416 13.2189 11.6464 13.4142L9.03033 16.0302C8.73744 16.3231 8.26256 16.3231 7.96967 16.0302C7.67678 15.7373 7.67678 15.2624 7.96967 14.9695L10.5857 12.3535C10.781 12.1582 10.781 11.8416 10.5857 11.6464L7.96967 9.03033C7.67678 8.73744 7.67678 8.26256 7.96967 7.96967C8.26256 7.67678 8.73744 7.67678 9.03033 7.96967L11.6464 10.5857C11.8416 10.781 12.1582 10.781 12.3535 10.5857L14.9697 7.96955C15.2626 7.67665 15.7374 7.67665 16.0303 7.96955Z" fill="black"/>
<path fill-rule="evenodd" clip-rule="evenodd" d="M12 22C17.5228 22 22 17.5228 22 12C22 6.47715 17.5228 2 12 2C6.47715 2 2 6.47715 2 12C2 17.5228 6.47715 22 12 22ZM12 20.5C16.6944 20.5 20.5 16.6944 20.5 12C20.5 7.30558 16.6944 3.5 12 3.5C7.30558 3.5 3.5 7.30558 3.5 12C3.5 16.6944 7.30558 20.5 12 20.5Z" fill="black"/>
</svg>
